icons/layout-sidebar-left-off.svg

<svg xmlns="http://www.w3.org/2000/svg" viewBox="0 0 24 24"><g fill="#4dd0e1"><path d="m2.333.505 19.8 19.799-1.415 1.414L.92 1.92z"/><path d="M22 6v10.879l-2-2V6h-8.879l-2-2H20a2 2 0 0 1 2 2m-2 14H4a2 2 0 0 1-2-2V6a2 2 0 0 1 2-2h.879L9 8.121V18h9.879l1.859 1.859A2 2 0 0 1 20 20"/></g></svg>

<svg viewBox="0 0 24 24" width="16px" height="16px" xmlns="http://www.w3.org/2000/svg">
    <g fill="#4DD0E1">
        <rect x="2" width="28" height="2"
              transform="matrix(0.707106, 0.707107, -0.707107, 0.707106, 0.919241, -0.909189)"></rect>
        <path d="M 22 6 L 22 16.879 L 20 14.879 L 20 6 L 11.121 6 L 9.121 4 L 20 4 C 21.105 4 22 4.895 22 6 Z M 20 20 L 4 20 C 2.895 20 2 19.105 2 18 L 2 6 C 2 4.895 2.895 4 4 4 L 4.879 4 L 9 8.121 L 9 18 L 18.879 18 L 20.738 19.859 C 20.51 19.95 20.261 20 20 20 Z"></path>
    </g>
</svg>
